X: 19583
T: James'
R: jig
M: 6/8
K: Eminor
On bars 6 an seven instead of|BGE FDB,|CDE EFG|
I play|BGE FDB|cDE EFG|
On bars 13 and 14 instead of|~E3 EDB,|CEG DFA|
I play|~E3 EDB|cEG DFA|

